symbols/web/task/materialsymbolsoutlined/task_wght200fill1_48px.svg

<svg xmlns="http://www.w3.org/2000/svg" height="48" width="48"><path d="m21.8 33.35 10-9.95-1-1-9 9-4.7-4.75-1 1ZM12.75 42q-1.15 0-1.95-.8t-.8-1.95V8.75q0-1.15.8-1.95t1.95-.8h16.7L38 14.55v24.7q0 1.15-.8 1.95t-1.95.8ZM28.7 15.2h7.75L28.7 7.55Z"/></svg>

<svg xmlns="http://www.w3.org/2000/svg" height="48" width="48"><path d="M12.75 42Q11.6 42 10.8 41.2Q10 40.4 10 39.25V8.75Q10 7.6 10.8 6.8Q11.6 6 12.75 6H29.45L38 14.55V39.25Q38 40.4 37.2 41.2Q36.4 42 35.25 42ZM28.7 15.2H36.45L28.7 7.55ZM21.8 33.35 31.8 23.4 30.8 22.4 21.8 31.4 17.1 26.65 16.1 27.65Z"/></svg>
